X: 11526
T: Eddie Moloney's Favourite
R: reel
M: 4/4
K: Edorian
B2GB EBGB|~A2FA DAFA|~B2GB eBGB|efgf e=cd^c|
B2GB EBGB|~A2FA DAFA|~B2GB eBGB|efgf efge||
~a2af ~g2ec|d2AG FDdf|afdf ~g2fd|e2ed efge|
~a2af ~g2ec|d2AG FDDF|EDEF GA (3Bcd|efgf e=cd^c||

